dist/svgs/crypto-icons/icons/omg.svg

<?xml version="1.0" encoding="UTF-8" standalone="yes"?>
<svg xmlns="http://www.w3.org/2000/svg" xmlns:xlink="http://www.w3.org/1999/xlink" width="512px" height="512px" viewBox="0 0 384 384" version="1.1">
  <g id="surface1">
    <path style=" stroke:none;fill-rule:nonzero;fill:rgb(0%,0%,0%);fill-opacity:1;" d="M 92.933594 198.1875 C 41.667969 198.1875 0.113281 239.78125 0.113281 291.09375 C 0.113281 342.40625 41.675781 384 92.9375 384 C 144.207031 384 185.765625 342.40625 185.765625 291.09375 C 185.765625 239.78125 144.207031 198.1875 92.9375 198.1875 Z M 92.933594 355.898438 C 57.195312 355.898438 28.222656 326.898438 28.222656 291.125 C 28.222656 255.355469 57.195312 226.355469 92.933594 226.355469 C 128.675781 226.355469 157.648438 255.355469 157.648438 291.125 C 157.589844 326.871094 128.648438 355.835938 92.933594 355.898438 Z M 291.171875 0 C 239.910156 0 198.347656 41.597656 198.347656 92.90625 C 198.347656 144.21875 239.910156 185.8125 291.171875 185.8125 C 342.445312 185.8125 384 144.21875 384 92.90625 C 384 41.59375 342.445312 0 291.171875 0 Z M 291.171875 157.707031 C 255.4375 157.707031 226.464844 128.710938 226.464844 92.941406 C 226.464844 57.167969 255.4375 28.167969 291.171875 28.167969 C 326.917969 28.167969 355.890625 57.167969 355.890625 92.941406 C 355.832031 128.683594 326.890625 157.648438 291.171875 157.707031 Z M 92.933594 0 C 48.742188 -0.0273438 10.652344 31.121094 1.863281 74.476562 C -6.921875 117.820312 16.035156 161.363281 56.742188 178.578125 C 97.453125 195.789062 144.648438 181.902344 169.566406 145.371094 C 194.496094 108.839844 190.246094 59.796875 159.414062 28.101562 L 185.738281 28.101562 L 185.738281 0 Z M 157.648438 92.90625 C 157.648438 128.679688 128.675781 157.675781 92.933594 157.675781 C 57.195312 157.675781 28.222656 128.679688 28.222656 92.90625 C 28.222656 57.136719 57.195312 28.136719 92.933594 28.136719 C 128.660156 28.179688 157.621094 57.148438 157.683594 92.90625 Z M 157.648438 92.90625 "/>
  </g>
</svg>

<svg xmlns="http://www.w3.org/2000/svg" viewBox="0 0 384 384"><path d="M92.934 198.188c-51.266 0-92.82 41.593-92.82 92.906C.113 342.406 41.675 384 92.936 384c51.27 0 92.829-41.594 92.829-92.906 0-51.313-41.559-92.906-92.828-92.906zm0 157.71c-35.739 0-64.711-29-64.711-64.773 0-35.77 28.972-64.77 64.71-64.77 35.743 0 64.715 29 64.715 64.77-.058 35.746-29 64.71-64.714 64.773zM291.172 0c-51.262 0-92.824 41.598-92.824 92.906 0 51.313 41.562 92.906 92.824 92.906 51.273 0 92.828-41.593 92.828-92.906C384 41.594 342.445 0 291.172 0zm0 157.707c-35.735 0-64.707-28.996-64.707-64.766 0-35.773 28.972-64.773 64.707-64.773 35.746 0 64.719 29 64.719 64.773-.059 35.743-29 64.707-64.72 64.766zM92.934 0C48.742-.027 10.652 31.121 1.864 74.477c-8.786 43.343 14.171 86.886 54.878 104.101 40.711 17.211 87.906 3.324 112.824-33.207 24.93-36.531 20.68-85.574-10.152-117.27h26.324V0zm64.714 92.906c0 35.774-28.972 64.77-64.714 64.77-35.739 0-64.711-28.996-64.711-64.77 0-35.77 28.972-64.77 64.71-64.77 35.727.044 64.688 29.012 64.75 64.77zm0 0"/></svg>
